X:1
T:Title
%%score { ( 1 3 ) | 2 }
L:1/8
M:6/8
K:Eb
V:1 treble nm="Grand Piano"
V:3 treble 
V:2 bass 
V:1
 z3 z2[Q:1/4=100] G | B2 c B2 G | [GB]2 [Ac] [GB]2 E | GAG E2 [DF] |[M:5/8] E-E- E3 |[M:1/8] G | %6
[M:3/4] B2 c B2 G | [GB]2 [Ac] [GB]2 E | GA G E2 [DF] |[M:5/8] [B,E]-[B,E]- [B,E]3 |[M:1/8] [EG] | %11
[M:3/4] [DF]>[EG] [FA] [Ad]2 [DAc] | [GB]4 z2 | F>=A c e2 e |[M:5/8] [Fd]3 [Ac]2 |[M:1/8] [AB] | %16
[M:3/4] [Ge]2 [Ge] [Bd]2 [Ac] | [GB]2 [Ac] [GB]2 E | G>A G E2 [DF] |[M:5/8] [B,E]-[B,E]- [B,E]3 |] %20
V:2
 z3 z2 [E,B,E] | [E,G,E]2 [E,A,E] [E,G,E]2 [E,B,E] | [E,E]2 [E,E] [E,E]2 [E,G,] | %3
 [E,B,E][E,CE][E,B,E] [B,,G,]2 [B,,A,] |[M:5/8] [E,G,B,]-[E,G,B,]- [E,G,B,]3 |[M:1/8] [E,B,E] | %6
[M:3/4] [E,G,E]2 [E,A,E] [E,G,E]2 [E,B,E] | [E,E]2 [E,E] [E,E]2 [E,G,] | %8
 [E,B,E][E,CE] [E,B,E] [B,,G,]2 [B,,A,] |[M:5/8] [E,G,]-[E,G,]- [E,G,]3 |[M:1/8] [E,B,] | %11
[M:3/4] [B,,B,]>[B,,B,] [B,,B,] [B,,B,]2 B,, | E,2 E, [E,B,E]2 [E,B,E] | %13
 [F,=A,E]>[F,CE] [F,A,E] [F,A,F]2 [F,A,F] |[M:5/8] [B,,B,]2 B, [B,D]2 |[M:1/8] [B,D] | %16
[M:3/4] [E,B,]2 [E,B,] [E,C]2 [E,D] | [E,E]2 [E,E] [E,E]2 [E,G,] | %18
 [E,B,E]>[E,CE] [E,B,E] [B,,G,]2 [B,,A,] |[M:5/8] [E,G,]-[E,G,]- [E,G,]3 |] %20
V:3
 x6 | x6 | x6 | x6 |[M:5/8] x5 |[M:1/8] x |[M:3/4] x6 | x6 | x6 |[M:5/8] x5 |[M:1/8] x | %11
[M:3/4] x6 | E2 E G2 G | x6 |[M:5/8] x5 |[M:1/8] x |[M:3/4] x6 | x6 | x6 |[M:5/8] x5 |] %20

